packages/foundations/assets/icons/functional/images/environment/water_drop_16.svg

<svg width="16" height="16" viewBox="0 0 16 16" fill="none" xmlns="http://www.w3.org/2000/svg">
<g clip-path="url(#clip0_185_871)">
<path fill-rule="evenodd" clip-rule="evenodd" d="M7.99998 14.3995C5.22398 14.3995 3.13098 12.2885 3.13098 9.48898C3.13098 8.38898 3.57848 7.18398 4.45948 5.90848C4.45948 5.90848 6.19498 3.32498 6.98598 2.13748C7.20998 1.80198 7.58398 1.60098 7.98698 1.59998H7.98948C8.30948 1.59998 8.61148 1.72648 8.83498 1.94648C8.90298 1.99848 8.96348 2.06198 9.01348 2.13748C9.80598 3.32698 11.546 5.91698 11.546 5.91698C12.4215 7.18448 12.869 8.38898 12.869 9.48948C12.869 12.2895 10.776 14.3995 7.99998 14.3995ZM7.99998 3.50048C7.13548 4.79348 5.78148 6.80898 5.78148 6.80898C5.08248 7.82048 4.73048 8.71948 4.73048 9.48848C4.73048 11.407 6.10548 12.7995 7.99948 12.7995C9.89348 12.7995 11.269 11.407 11.269 9.48848C11.269 8.71948 10.9175 7.82098 10.224 6.81698C10.219 6.80948 8.86398 4.79348 7.99998 3.50048Z" fill="#1A1C1F"/>
</g>
<defs>
<clipPath id="clip0_185_871">
<rect width="16" height="16" fill="white"/>
</clipPath>
</defs>
</svg>

<svg xmlns="http://www.w3.org/2000/svg" width="16" height="16" fill="none"><g clip-path="url(#a)"><path fill="#1A1C1F" fill-rule="evenodd" d="M8 14.4c-2.776 0-4.869-2.111-4.869-4.911 0-1.1.447-2.305 1.328-3.58 0 0 1.736-2.584 2.527-3.772A1.2 1.2 0 0 1 7.987 1.6h.002c.32 0 .622.126.846.346a.8.8 0 0 1 .178.191c.793 1.19 2.533 3.78 2.533 3.78.876 1.267 1.323 2.472 1.323 3.572 0 2.8-2.093 4.91-4.869 4.91M8 3.5C7.135 4.793 5.781 6.81 5.781 6.81c-.699 1.011-1.05 1.91-1.05 2.68 0 1.918 1.374 3.31 3.268 3.31s3.27-1.392 3.27-3.31c0-.77-.351-1.668-1.045-2.672C10.219 6.809 8.864 4.793 8 3.5" clip-rule="evenodd"/></g><defs><clipPath id="a"><path fill="#fff" d="M0 0h16v16H0z"/></clipPath></defs></svg>
